src/gen3-ui-component/images/icons/doctor.svg

<?xml version="1.0" encoding="UTF-8"?>
<svg width="28px" height="40px" viewBox="0 0 28 40" version="1.1" xmlns="http://www.w3.org/2000/svg" xmlns:xlink="http://www.w3.org/1999/xlink">
    <!-- Generator: Sketch 51.2 (57519) - http://www.bohemiancoding.com/sketch -->
    <title>Shape</title>
    <desc>Created with Sketch.</desc>
    <defs></defs>
    <g id="Symbols" stroke="none" stroke-width="1" fill="none" fill-rule="evenodd">
        <g id="case" fill="#4A4A4A" fill-rule="nonzero">
            <path d="M24.6461613,22.2189423 L20.9916584,20.8092736 L19.12429,18.9419052 C19.0003134,18.8179286 18.8337637,18.7610085 18.6705668,18.7722366 L18.6705668,17.1793321 C19.5531399,16.2471684 20.1799625,15.0610475 20.4257325,13.7227239 C20.4290073,13.7107161 20.4485785,13.690989 20.4620677,13.685531 C20.6252646,13.696759 20.7904108,13.6856089 20.9532958,13.6523146 C21.8035882,13.4782795 22.4208202,12.6878701 22.4208202,11.7729384 L22.4208202,11.2858428 C22.4208202,10.739644 22.1924381,10.239683 21.8232373,9.89091107 C22.4244069,6.68264596 21.9485395,4.07157384 20.441327,2.33098904 C18.99275,0.658474422 16.6542705,-0.140589905 13.6789099,0.0202677948 C10.8859274,0.171222961 9.10198978,1.47204167 8.57216522,1.91399099 C7.82783773,2.00685649 5.62526463,2.54104752 5.62526463,5.60451731 C5.62526463,7.33777267 5.91189231,8.77286039 6.1062003,9.54697345 C5.44701902,9.83617423 5.00023539,10.5133672 5.00023539,11.2932503 L5.00023539,11.7730163 C5.00023539,12.6878701 5.61746736,13.4782795 6.46775976,13.6523926 C6.63064475,13.6857649 6.79594689,13.696915 6.95898783,13.6856089 C6.97239913,13.691067 6.99204826,13.7107161 6.99516716,13.7221781 C7.24101512,15.0607356 7.8679157,16.2470124 8.7504888,17.1792541 L8.7504888,18.7722366 C8.58721395,18.7610085 8.42066424,18.8180066 8.29676561,18.9419052 L6.42947516,20.8091957 L2.77497223,22.2188643 C1.04296444,22.8869345 -0.0708757201,24.5820612 0.00351024484,26.436954 L0.521093091,39.3606187 C0.53372467,39.6753945 0.792827984,39.9220222 1.10503071,39.9220222 C1.11298393,39.9220222 1.12093715,39.9218662 1.12889036,39.9215543 C1.45161941,39.9086109 1.70269153,39.6365641 1.68982603,39.313835 L1.17224319,26.3901703 C1.15703851,26.011145 1.20990401,25.6413204 1.32148295,25.2944198 L3.44818861,27.4211255 C4.04608334,28.0190202 4.3753621,28.813952 4.3753621,29.6594881 L4.3753621,39.3373048 C4.3753621,39.6602678 4.63719446,39.9221002 4.96015742,39.9221002 C5.28312038,39.9221002 5.54495274,39.6602678 5.54495274,39.3373048 L5.54495274,29.6593321 C5.54495274,28.5014374 5.09403656,27.4127824 4.27524514,26.593991 L1.91002097,24.2288448 C2.24639524,23.8277532 2.684212,23.5075193 3.19602486,23.3100924 L6.63462136,21.9837766 L9.25310089,25.9115738 C9.55922175,26.3708331 10.049826,26.665336 10.5990658,26.719683 C10.6601964,26.7257649 10.7211711,26.7287278 10.7818338,26.7287278 C11.1518923,26.7287278 11.509943,26.6170709 11.8131009,26.4099754 L11.2513855,39.3117298 C11.2373504,39.6343809 11.4874869,39.9073633 11.8102159,39.9213984 C11.8188709,39.9217883 11.8275258,39.9219442 11.8361028,39.9219442 C12.1473699,39.9219442 12.4062393,39.6766421 12.4198845,39.362568 L12.9389488,27.4406966 L14.4826525,27.4406966 L15.0017169,39.362568 C15.0153621,39.6765641 15.2742315,39.9219442 15.5854985,39.9219442 C15.5940755,39.9219442 15.6027305,39.9217883 15.6113855,39.9213984 C15.9340366,39.9072853 16.184251,39.6343809 16.1702159,39.3117298 L15.6085005,26.4101313 C15.9115804,26.6173048 16.2696311,26.7288838 16.6397676,26.7288838 C16.7004303,26.7288838 16.761483,26.7258428 16.8225356,26.7198389 C17.3716974,26.665492 17.8623017,26.3709111 18.1685005,25.9117298 L20.78698,21.9839325 L24.2255765,23.3102483 C24.7373894,23.5076752 25.1752062,23.8279871 25.5115804,24.2290007 L23.1463562,26.5941469 C22.3275648,27.4129384 21.8766486,28.5015933 21.8766486,29.6594881 L21.8766486,39.3373048 C21.8766486,39.6602678 22.138481,39.9221002 22.461444,39.9221002 C22.7844069,39.9221002 23.0462393,39.6602678 23.0462393,39.3373048 L23.0462393,29.6594881 C23.0462393,28.813952 23.375518,28.0190202 23.9734128,27.4211255 L26.1001184,25.2944198 C26.2116974,25.6413204 26.2645629,26.011145 26.2493582,26.3901703 L25.7318533,39.313835 C25.7189099,39.6365641 25.97006,39.9086109 26.292789,39.9215543 C26.3008202,39.9218662 26.3086954,39.9220222 26.3166486,39.9220222 C26.6287734,39.9220222 26.8879547,39.6753945 26.9005863,39.3606187 L27.4181691,26.4370319 C27.4920093,24.5821391 26.3781691,22.8870124 24.6461613,22.2189423 Z M8.14510869,13.5107161 C8.03508919,12.9104042 7.4799235,12.4747707 6.88046931,12.5185914 C6.82214572,12.5228799 6.76218471,12.5187473 6.70214572,12.5065056 C6.39851999,12.4443614 6.16959212,12.1290397 6.16959212,11.7730163 L6.16959212,11.2932503 C6.16959212,10.9383185 6.40187282,10.6298584 6.70994299,10.5757454 C6.96382214,10.531223 7.20772077,10.6247122 7.36202876,10.8258818 C7.47399757,10.9719247 7.62308139,11.0762522 7.79321785,11.1277142 C8.04241863,11.2029579 8.31727243,11.1588253 8.52842253,11.0097415 C9.0399235,10.6487278 9.47352974,10.1907161 9.8170775,9.64849392 C9.98994299,9.3756674 9.90900732,9.01441984 9.63618081,8.84147637 C9.3633543,8.66861087 9.00202876,8.74962452 8.82916327,9.02237306 C8.62011843,9.35219762 8.36826658,9.64038475 8.07836405,9.88194421 C7.85380264,9.67438086 7.58269153,9.52896175 7.29068373,9.45402998 C7.12148295,8.82354265 6.79462136,7.37613524 6.79462136,5.60459528 C6.79462136,3.16467325 8.61122954,3.06720737 8.81411453,3.06416643 C8.96522564,3.06416643 9.11041083,3.0056869 9.2193387,2.90096955 C9.23555703,2.88545298 10.8713465,1.34330873 13.7417559,1.18814304 C16.3428475,1.04763622 18.3537637,1.70751926 19.5568046,3.09675902 C20.7816779,4.511106 21.1811321,6.68498514 20.7220288,9.40256799 C20.5115024,9.38822101 20.2710346,9.40404947 20.0339196,9.44888378 L19.3805083,7.87983894 C19.2683835,7.61059918 18.9744264,7.46533602 18.6925551,7.53894226 C18.6300989,7.55523856 12.4092023,9.13332822 9.7879157,5.87009236 C9.58573247,5.61831848 9.21770128,5.57808456 8.96577145,5.78034577 C8.71399757,5.98260698 8.67376366,6.35071614 8.87610284,6.60249002 C11.5244459,9.89972199 16.8304108,9.12451731 18.49006,8.78401048 L19.0017948,10.0127044 C19.1946214,10.4759403 19.6878767,10.7289618 20.1746603,10.6143419 C20.3897091,10.5637376 20.6109177,10.5574218 20.710021,10.5770709 C21.018403,10.6384354 21.2509177,10.9430748 21.2509177,11.2857649 L21.2509177,11.7728604 C21.2509177,12.1288838 21.0219898,12.4442054 20.718364,12.5063497 C20.6583251,12.5186694 20.598442,12.522646 20.5401184,12.5184354 C19.9421457,12.4744588 19.3854985,12.9102483 19.2752451,13.5107161 C18.7819898,16.1962522 16.4415609,18.145492 13.7101769,18.145492 C10.9788709,18.145492 8.63844202,16.1962522 8.14510869,13.5107161 Z M11.249982,25.3642054 C11.1085395,25.5057259 10.9133738,25.5756674 10.7139976,25.5558623 C10.5148553,25.5361352 10.3369995,25.4293126 10.2259664,25.2628409 L7.58752584,21.3051021 L8.73676561,20.1558623 L12.8548943,23.7592152 L11.249982,25.3642054 Z M12.9895531,26.271184 L13.0346993,25.2335232 L13.7104888,24.5577337 L14.3862003,25.2335232 L14.4313465,26.271184 L12.9895531,26.271184 Z M13.7104888,22.9537571 L9.92000147,19.6371099 L9.92000147,18.165453 C11.0113855,18.8944198 12.318442,19.3153165 13.7104888,19.3153165 C15.1025356,19.3153165 16.4095921,18.8944198 17.5009761,18.165531 L17.5009761,19.6371099 L13.7104888,22.9537571 Z M17.1949332,25.2628409 C17.0839001,25.4293126 16.9060444,25.5361352 16.7069021,25.5558623 C16.5075258,25.5757454 16.3124381,25.5056479 16.1709177,25.3642054 L14.5660054,23.7592152 L18.684134,20.1558623 L19.8333738,21.3051021 L17.1949332,25.2628409 Z" id="Shape"></path>
        </g>
    </g>
</svg>

<svg width="28" height="40" xmlns="http://www.w3.org/2000/svg"><path d="m24.646 22.219-3.654-1.41-1.868-1.867a.583.583 0 0 0-.453-.17V17.18a6.804 6.804 0 0 0 1.755-3.456c.003-.012.023-.032.036-.037.163.01.328 0 .491-.034.85-.174 1.468-.964 1.468-1.88v-.486a1.92 1.92 0 0 0-.598-1.395c.601-3.208.126-5.82-1.382-7.56C18.993.658 16.654-.141 13.68.021c-2.793.15-4.577 1.451-5.107 1.893-.744.093-2.947.627-2.947 3.69 0 1.734.287 3.169.481 3.943-.659.29-1.106.966-1.106 1.746v.48c0 .915.617 1.705 1.468 1.88.163.033.328.044.491.033.013.005.033.025.036.036A6.806 6.806 0 0 0 8.75 17.18v1.593a.583.583 0 0 0-.453.17L6.429 20.81l-3.654 1.41a4.334 4.334 0 0 0-2.771 4.218L.52 39.361a.585.585 0 0 0 1.169-.047L1.172 26.39a3.16 3.16 0 0 1 .15-1.096l2.126 2.127c.598.598.927 1.393.927 2.238v9.678a.585.585 0 0 0 1.17 0V29.66a4.306 4.306 0 0 0-1.27-3.065L1.91 24.229a3.16 3.16 0 0 1 1.286-.919l3.439-1.326 2.618 3.928a1.828 1.828 0 0 0 1.529.817c.37 0 .728-.112 1.031-.319l-.562 12.902a.585.585 0 1 0 1.169.05l.519-11.921h1.544l.519 11.922a.585.585 0 1 0 1.168-.051l-.56-12.902a1.824 1.824 0 0 0 1.214.31 1.829 1.829 0 0 0 1.346-.808l2.618-3.928 3.439 1.326c.511.198.95.518 1.286.919l-2.366 2.365a4.307 4.307 0 0 0-1.27 3.065v9.678a.585.585 0 0 0 1.17 0V29.66c0-.845.33-1.64.927-2.238l2.127-2.127c.112.347.165.717.15 1.096l-.518 12.924a.585.585 0 1 0 1.169.047l.517-12.924a4.335 4.335 0 0 0-2.772-4.218Zm-16.5-8.708a1.216 1.216 0 0 0-1.266-.992.653.653 0 0 1-.178-.012c-.303-.063-.532-.378-.532-.734v-.48c0-.355.232-.663.54-.717a.663.663 0 0 1 .652.25c.112.146.261.25.431.302.25.075.524.03.735-.118a4.797 4.797 0 0 0 1.29-1.362.585.585 0 0 0-.989-.626c-.209.33-.46.618-.75.86a1.829 1.829 0 0 0-.788-.428c-.17-.63-.496-2.078-.496-3.85 0-2.44 1.816-2.537 2.02-2.54a.585.585 0 0 0 .404-.163c.017-.016 1.652-1.558 4.523-1.713 2.6-.14 4.612.52 5.815 1.909 1.225 1.414 1.624 3.588 1.165 6.306a2.777 2.777 0 0 0-.688.046l-.653-1.57a.585.585 0 0 0-.688-.34c-.063.016-6.284 1.594-8.905-1.669a.585.585 0 1 0-.912.732C11.524 9.9 16.83 9.125 18.49 8.784l.512 1.229c.193.463.686.716 1.173.601.215-.05.436-.057.535-.037.308.061.54.366.54.709v.487c0 .356-.228.671-.532.733a.653.653 0 0 1-.178.012 1.218 1.218 0 0 0-1.265.993 5.657 5.657 0 0 1-5.565 4.634 5.657 5.657 0 0 1-5.565-4.634Zm3.104 11.853a.662.662 0 0 1-1.024-.101l-2.638-3.958 1.149-1.15 4.118 3.604-1.605 1.605Zm1.74.907.045-1.037.675-.676.676.676.045 1.037H12.99Zm.72-3.317-3.79-3.317v-1.472a6.81 6.81 0 0 0 3.79 1.15 6.8 6.8 0 0 0 3.791-1.15v1.472l-3.79 3.317Zm3.485 2.309a.663.663 0 0 1-1.024.101l-1.605-1.605 4.118-3.603 1.15 1.15-2.64 3.957Z" fill="#4A4A4A"/></svg>
